X:543
M:C|
L:1/8
K:D
|:f|d<d f>d e>df>d|B>A B<d e3f|1d<d f>d e>df>d|A>B A<F D2D:|2
a>fe>d B<d A>F|A>BA>F D2D||

